public/static/icons/navbar/ic_dashboard.svg

<svg height="24" viewBox="0 0 24 24" width="24" xmlns="http://www.w3.org/2000/svg"><g transform="translate(2 4)"><path d="m18.38 4.57-1.23 1.85c1.2049 2.40314304 1.1222508 5.2507848-.22 7.58h-13.86c-1.76350331-3.059309-1.31261601-6.91298595 1.10947843-9.48257235s6.24242627-3.24722187 9.40052157-1.66742765l1.85-1.23c-3.8761922-2.48556317-8.94860517-2.00294347-12.28650726 1.16901179-3.3379021 3.17195526-4.07833512 8.21319061-1.79349274 12.21098821.35510459.6150891 1.00977788.9957131 1.72 1.0000158h13.85c.7173695.0028322 1.3813181-.3787474 1.74-1.0000158 1.8786438-3.25433 1.7743473-7.28712667-.27-10.44z"/><path d="m8.59 11.41c.37513651.3755541.8841815.5865733 1.415.5865733s1.0398635-.2110192 1.415-.5865733l5.66-8.49-8.49 5.66c-.37555409.37513651-.58657331.8841815-.58657331 1.415s.21101922 1.0398635.58657331 1.415z" opacity=".48"/></g></svg>

<svg xmlns="http://www.w3.org/2000/svg" width="24" height="24" viewBox="0 0 24 24">
  <g transform="translate(2 4)">
    <path d="M18.38,4.57 L17.15,6.42 C18.3549,8.82314304 18.2722508,11.6707848 16.93,14 L3.07,14 C1.30649669,10.940691 1.75738399,7.08701405 4.17947843,4.51742765 C6.60157287,1.94784125 10.4219047,1.27020578 13.58,2.85 L15.43,1.62 C11.5538078,-0.865563173 6.48139483,-0.382943466 3.14349274,2.78901179 C-0.194409356,5.96096705 -0.934842382,11.0022024 1.35,15 C1.70510459,15.6150891 2.35977788,15.9957131 3.07,16.0000158 L16.92,16.0000158 C17.6373695,16.002848 18.3013181,15.6212684 18.66,15 C20.5386438,11.74567 20.4343473,7.71287333 18.39,4.56 L18.38,4.57 Z"/>
    <path d="M8.59,11.41 C8.96513651,11.7855541 9.4741815,11.9965733 10.005,11.9965733 C10.5358185,11.9965733 11.0448635,11.7855541 11.42,11.41 L17.08,2.92 L8.59,8.58 C8.21444591,8.95513651 8.00342669,9.4641815 8.00342669,9.995 C8.00342669,10.5258185 8.21444591,11.0348635 8.59,11.41 L8.59,11.41 Z" opacity=".48"/>
  </g>
</svg>
